public/assets/rectangle.svg

<svg fill="none" height="120" viewBox="0 0 120 120" width="120" xmlns="http://www.w3.org/2000/svg" xmlns:xlink="http://www.w3.org/1999/xlink"><clipPath id="a"><path d="m20 23.0926h80v74.8148h-80z"/></clipPath><rect fill="#ff5900" height="120" rx="17.9739" width="120"/><g clip-path="url(#a)" fill="#fff"><path d="m90.2185 32.4042c.6478 1.3693 1.0364 2.9159 1.0364 4.6074v46.9767c0 1.6755-.3886 3.222-1.0364 4.5914 5.0041.8377 9.7814-3.1254 9.7814-8.5866v-39.0023c0-5.4935-4.7935-9.4244-9.7814-8.5866z"/><path d="m90.2195 32.4042c-2.1377-4.4786-7.2551-7.0079-12.2429-5.3969 1.7328 1.9977 2.8178 4.6397 2.8178 7.6361v51.697c0 2.9803-1.085 5.6385-2.8016 7.6361 5.004 1.611 10.1052-.9344 12.2429-5.3968.6477-1.3694 1.0364-2.932 1.0364-4.5914v-46.9767c0-1.6754-.3887-3.222-1.0364-4.6074z" opacity=".8"/><path d="m42.8664 81.4106c-4.0972-1.466-6.8502-5.4452-6.8502-9.9077v-20.7657c0-4.3497 2.6073-8.2322 6.5587-9.7949l34.7854-13.7257c.2105-.0806.4049-.1289.6154-.1933-2.9636-3.4315-7.8219-4.978-12.4696-3.1415l-38.2996 15.1112c-4.3401 1.7076-7.2065 5.9929-7.2065 10.7776v22.8439c0 4.9136 3.0283 9.2794 7.5304 10.9065l38.2834 13.7418c4.5668 1.6432 9.2631.0805 12.1457-3.2542-.1133-.0322-.2105-.0483-.3239-.0967l-34.8016-12.4852z" opacity=".4"/><path d="m80.7933 85.3406-20.7935-7.4741c-3.3847-1.2243-5.6681-4.5269-5.6681-8.2161v-17.2377c0-3.6086 2.1539-6.8306 5.4251-8.1355l21.0365-8.345v-1.2727c0-2.9964-1.085-5.6223-2.8178-7.6361-.2106.0644-.4049.1128-.6154.1933l-34.8016 13.7418c-3.9515 1.5627-6.5587 5.4452-6.5587 9.7949v20.7658c0 4.4624 2.753 8.4255 6.8502 9.9076l34.8016 12.4853c.1133.0322.2105.0644.3239.0966 1.7328-2.0137 2.8016-4.6558 2.8016-7.6361l.0162-.9707z" opacity=".6"/><path d="m54.3307 52.3967v17.2376c0 3.7053 2.2672 7.0079 5.668 8.2161l20.7936 7.4912v-49.4093l-21.0365 8.3449c-3.2712 1.2888-5.4251 4.5269-5.4251 8.1356z"/></g></svg>

<svg width="120" height="120" viewBox="0 0 120 120" fill="none" xmlns="http://www.w3.org/2000/svg">
<rect width="120" height="120" rx="17.9739" fill="#FF5900"/>
<g clip-path="url(#clip0_22_16)">
<path d="M90.2185 32.4042C90.8663 33.7735 91.2549 35.3201 91.2549 37.0116V83.9883C91.2549 85.6638 90.8663 87.2103 90.2185 88.5797C95.2226 89.4174 99.9999 85.4543 99.9999 79.9931V40.9908C99.9999 35.4973 95.2064 31.5664 90.2185 32.4042Z" fill="white"/>
<path opacity="0.8" d="M90.2195 32.4042C88.0818 27.9256 82.9644 25.3963 77.9766 27.0073C79.7094 29.005 80.7944 31.647 80.7944 34.6434V86.3404C80.7944 89.3207 79.7094 91.9789 77.9928 93.9765C82.9968 95.5875 88.098 93.0421 90.2357 88.5797C90.8834 87.2103 91.2721 85.6477 91.2721 83.9883V37.0116C91.2721 35.3362 90.8834 33.7896 90.2357 32.4042H90.2195Z" fill="white"/>
<path opacity="0.4" d="M42.8664 81.4106C38.7692 79.9446 36.0162 75.9654 36.0162 71.5029V50.7372C36.0162 46.3875 38.6235 42.505 42.5749 40.9423L77.3603 27.2166C77.5708 27.136 77.7652 27.0877 77.9757 27.0233C75.0121 23.5918 70.1538 22.0453 65.5061 23.8818L27.2065 38.993C22.8664 40.7006 20 44.9859 20 49.7706V72.6145C20 77.5281 23.0283 81.8939 27.5304 83.521L65.8138 97.2628C70.3806 98.906 75.0769 97.3433 77.9595 94.0086C77.8462 93.9764 77.749 93.9603 77.6356 93.9119L42.834 81.4267L42.8664 81.4106Z" fill="white"/>
<path opacity="0.6" d="M80.7933 85.3406L59.9998 77.8665C56.6151 76.6422 54.3317 73.3396 54.3317 69.6504V52.4127C54.3317 48.8041 56.4856 45.5821 59.7568 44.2772L80.7933 35.9322V34.6595C80.7933 31.6631 79.7083 29.0372 77.9755 27.0234C77.7649 27.0878 77.5706 27.1362 77.3601 27.2167L42.5585 40.9585C38.607 42.5212 35.9998 46.4037 35.9998 50.7534V71.5192C35.9998 75.9816 38.7528 79.9447 42.85 81.4268L77.6516 93.9121C77.7649 93.9443 77.8621 93.9765 77.9755 94.0087C79.7083 91.995 80.7771 89.3529 80.7771 86.3726L80.7933 85.4019V85.3406Z" fill="white"/>
<path d="M54.3307 52.3967V69.6343C54.3307 73.3396 56.5979 76.6422 59.9987 77.8504L80.7923 85.3416V35.9323L59.7558 44.2772C56.4846 45.566 54.3307 48.8041 54.3307 52.4128V52.3967Z" fill="white"/>
</g>
<defs>
<clipPath id="clip0_22_16">
<rect width="80" height="74.8148" fill="white" transform="translate(20 23.0926)"/>
</clipPath>
</defs>
</svg>
